icons/caret-double-left.svg

<svg width="24" height="25" viewBox="0 0 24 25" fill="none" xmlns="http://www.w3.org/2000/svg">
<path fill-rule="evenodd" clip-rule="evenodd" d="M17.3571 7.93028C17.5616 7.7258 18.0036 7.45515 18.4979 7.70229C18.9484 7.92756 19.0375 8.3941 19.0375 8.66061V16.3606C19.0375 16.6791 18.8877 17.0285 18.5785 17.2346C18.4092 17.3475 18.1848 17.4186 17.9352 17.3853C17.6895 17.3525 17.4954 17.2292 17.3571 17.0909L13.5484 13.2822C13.4397 13.212 13.3531 13.1194 13.2925 13.0209C13.1833 12.8435 13.1625 12.6641 13.1625 12.5481C13.1625 12.3189 13.2453 12.0421 13.4571 11.8303L17.3571 7.93028ZM17.5375 9.87127L14.8981 12.5106L17.5375 15.1499V9.87127Z" fill="black"/>
<path fill-rule="evenodd" clip-rule="evenodd" d="M9.1572 7.93028C9.36168 7.7258 9.80366 7.45515 10.2979 7.70229C10.7485 7.92755 10.8375 8.3941 10.8375 8.66061V16.3606C10.8375 16.6791 10.6877 17.0285 10.3786 17.2346C10.2092 17.3475 9.98482 17.4186 9.73528 17.3853C9.48959 17.3525 9.29541 17.2292 9.1572 17.0909L5.34847 13.2822C5.23977 13.212 5.15316 13.1194 5.09253 13.0209C4.98338 12.8435 4.96252 12.6641 4.96252 12.5481C4.96252 12.3189 5.04533 12.0421 5.25719 11.8303L9.1572 7.93028ZM9.33753 9.87127L6.69818 12.5106L9.33753 15.15V9.87127Z" fill="black"/>
</svg>

<svg xmlns="http://www.w3.org/2000/svg" fill="none" viewBox="0 0 24 25">
  <path fill="#000" fill-rule="evenodd" d="M17.357 7.93c.205-.204.647-.475 1.14-.228.451.226.54.692.54.959v7.7c0 .318-.15.668-.459.874a.934.934 0 0 1-.643.15 1.007 1.007 0 0 1-.578-.294l-3.809-3.809a.833.833 0 0 1-.255-.261.901.901 0 0 1-.13-.473c0-.23.082-.506.294-.718l3.9-3.9Zm.18 1.941-2.639 2.64 2.64 2.639V9.87ZM9.157 7.93c.205-.204.647-.475 1.14-.228.451.226.54.692.54.959v7.7c0 .318-.15.668-.458.874a.934.934 0 0 1-.644.15 1.006 1.006 0 0 1-.578-.294l-3.809-3.809a.833.833 0 0 1-.255-.261.902.902 0 0 1-.13-.473c0-.23.082-.506.294-.718l3.9-3.9Zm.18 1.941-2.639 2.64 2.64 2.639V9.871Z" clip-rule="evenodd"/>
</svg>
